src/icons/service-gotlab.svg

<svg enable-background="new 0 0 14 13" viewBox="0 0 14 13" xmlns="http://www.w3.org/2000/svg"><g><path d="m7 12.9 2.6-7.9h-5.2z" fill="#e24329"/><path d="m7 12.9-2.6-7.9h-3.6z" fill="#fc6d26"/><path d="m.8 5-.8 2.4c0 .2 0 .5.2.6l6.8 4.9z" fill="#fca326"/><path d="m.8 5h3.6l-1.5-4.8c-.1-.2-.5-.2-.5 0z" fill="#e24329"/><path d="m7 12.9 2.6-7.9h3.6z" fill="#fc6d26"/><path d="m13.2 5 .8 2.4c0 .2 0 .5-.2.6l-6.8 4.9z" fill="#fca326"/><path d="m13.2 5h-3.6l1.6-4.8c.1-.2.4-.2.5 0z" fill="#e24329"/></g></svg>

<?xml version="1.0" encoding="utf-8"?>
<!-- Generator: Adobe Illustrator 20.1.0, SVG Export Plug-In . SVG Version: 6.00 Build 0)  -->
<svg version="1.1" id="Layer_1" xmlns="http://www.w3.org/2000/svg" xmlns:xlink="http://www.w3.org/1999/xlink" x="0px" y="0px"
	 viewBox="0 0 14 13" style="enable-background:new 0 0 14 13;" xml:space="preserve">
<style type="text/css">
	.st0{fill:#E24329;}
	.st1{fill:#FC6D26;}
	.st2{fill:#FCA326;}
</style>
<title>HDL/Icon/Standard/Service/gotlab</title>
<desc>Created with Sketch.</desc>
<g id="Colors">
	<g id="Service-icons" transform="translate(-623.000000, -501.000000)">
		<g id="GitLab" transform="translate(600.000000, 484.000000)">
			<g id="HDL_x2F_Icon_x2F_Standard_x2F_Service_x2F_gotlab" transform="translate(23.000000, 17.000000)">
				<g id="GitLab_Logo" transform="translate(0.000000, -0.000000)">
					<polygon id="Fill-4" class="st0" points="7,12.9 7,12.9 9.6,5 4.4,5 					"/>
					<polygon id="Fill-8" class="st1" points="7,12.9 4.4,5 0.8,5 					"/>
					<path id="Fill-12" class="st2" d="M0.8,5L0.8,5L0,7.4C0,7.6,0,7.9,0.2,8L7,12.9L0.8,5z"/>
					<path id="Fill-16" class="st0" d="M0.8,5h3.6L2.9,0.2C2.8,0,2.4,0,2.4,0.2L0.8,5z"/>
					<polygon id="Fill-18" class="st1" points="7,12.9 9.6,5 13.2,5 					"/>
					<path id="Fill-20" class="st2" d="M13.2,5L13.2,5L14,7.4C14,7.6,14,7.9,13.8,8L7,12.9L13.2,5z"/>
					<path id="Fill-22" class="st0" d="M13.2,5H9.6l1.6-4.8c0.1-0.2,0.4-0.2,0.5,0L13.2,5z"/>
				</g>
			</g>
		</g>
	</g>
</g>
</svg>
